.local/share/icons/Gruvbox-Plus-Dark/apps/16/com.scoutshonour.Digital.svg

<svg width="16" height="16" version="1.1" xmlns="http://www.w3.org/2000/svg">
  <defs>
    <style id="current-color-scheme" type="text/css">.ColorScheme-Text { color:#ebdbb2; } .ColorScheme-Highlight { color:#458588; }</style>
  </defs>
  <path class="ColorScheme-Text" d="m2.5e-7 2.284v11.43h6.857v-1.525h0.7617v-1.521h1.523v-5.334l-1.523-0.0039v-1.521h-0.7617v-1.525zm11.43 0v1.525h3.047v-1.525zm-8.381 1.525h2.285v1.521h0.7617v5.336h-0.7617v1.521h-2.285zm8.381 2.285v6.094h1.521v1.525h3.049v-1.525h-1.523v-6.094z" fill="currentColor"/>
</svg>

<svg xmlns="http://www.w3.org/2000/svg" style="isolation:isolate" width="16" height="16" viewBox="0 0 16 16">
 <defs>
  <style id="current-color-scheme" type="text/css">
   .ColorScheme-Text { color:#ebdbb2; } .ColorScheme-Highlight { color:#458588; }
  </style>
  <linearGradient id="arrongin" x1="0%" x2="0%" y1="0%" y2="100%">
   <stop offset="0%" style="stop-color:#d79921; stop-opacity:1"/>
   <stop offset="100%" style="stop-color:#b57614; stop-opacity:1"/>
  </linearGradient>
  <linearGradient id="aurora" x1="0%" x2="0%" y1="0%" y2="100%">
   <stop offset="0%" style="stop-color:#83a598; stop-opacity:1"/>
   <stop offset="100%" style="stop-color:#b16286; stop-opacity:1"/>
  </linearGradient>
  <linearGradient id="fitdance" x1="0%" x2="0%" y1="0%" y2="100%">
   <stop offset="0%" style="stop-color:#8ec07c; stop-opacity:1"/>
   <stop offset="100%" style="stop-color:#458588; stop-opacity:1"/>
  </linearGradient>
  <linearGradient id="oomox" x1="0%" x2="0%" y1="0%" y2="100%">
   <stop offset="0%" style="stop-color:#458588; stop-opacity:1"/>
   <stop offset="100%" style="stop-color:#928374; stop-opacity:1"/>
  </linearGradient>
  <linearGradient id="rainblue" x1="0%" x2="0%" y1="0%" y2="100%">
   <stop offset="0%" style="stop-color:#b8bb26; stop-opacity:1"/>
   <stop offset="100%" style="stop-color:#076678; stop-opacity:1"/>
  </linearGradient>
  <linearGradient id="sunrise" x1="0%" x2="0%" y1="0%" y2="100%">
   <stop offset="0%" style="stop-color: #fe8019; stop-opacity:1"/>
   <stop offset="100%" style="stop-color: #fabd2f; stop-opacity:1"/>
  </linearGradient>
  <linearGradient id="telinkrin" x1="0%" x2="0%" y1="0%" y2="100%">
   <stop offset="0%" style="stop-color: #83a598; stop-opacity:1"/>
   <stop offset="100%" style="stop-color: #83a598; stop-opacity:1"/>
  </linearGradient>
  <linearGradient id="60spsycho" x1="0%" x2="0%" y1="0%" y2="100%">
   <stop offset="0%" style="stop-color: #fb4934; stop-opacity:1"/>
   <stop offset="25%" style="stop-color: #fabd2f; stop-opacity:1"/>
   <stop offset="50%" style="stop-color: #fe8019; stop-opacity:1"/>
   <stop offset="100%" style="stop-color: #689d6a; stop-opacity:1"/>
  </linearGradient>
  <linearGradient id="90ssummer" x1="0%" x2="0%" y1="0%" y2="100%">
   <stop offset="0%" style="stop-color: #b16286; stop-opacity:1"/>
   <stop offset="20%" style="stop-color: #8ec07c; stop-opacity:1"/>
   <stop offset="50%" style="stop-color: #fabd2f; stop-opacity:1"/>
   <stop offset="100%" style="stop-color: #458588; stop-opacity:1"/>
  </linearGradient>
  <linearGradient id="cyberneon" x1="0%" x2="0%" y1="0%" y2="100%">
    <stop offset="0" style="stop-color:#83a598; stop-opacity:1"/>
    <stop offset="1" style="stop-color:#b16286; stop-opacity:1"/>
  </linearGradient>
  <clipPath id="_clipPath_tDrhYDsTBea7slMjsqVyK0Ck80fxfhWQ">
   <rect width="16" height="16"/>
  </clipPath>
 </defs>
 <g clip-path="url(#_clipPath_tDrhYDsTBea7slMjsqVyK0Ck80fxfhWQ)">
  <rect style="fill:currentColor" class="ColorScheme-Text" fill-opacity="0" width="16" height="16"/>
  <path style="fill:currentColor" class="ColorScheme-Text" fill-rule="evenodd" d="M 14.476 12.19 L 14.476 6.095 L 11.429 6.095 L 11.429 6.095 L 11.429 12.19 L 12.952 12.19 L 12.952 13.714 L 16 13.714 L 16 12.19 L 14.476 12.19 L 14.476 12.19 Z M 6.095 5.333 L 5.333 5.333 L 5.333 3.81 L 3.048 3.81 L 3.048 12.19 L 5.333 12.19 L 5.333 10.667 L 6.095 10.667 L 6.095 5.333 L 6.095 5.333 L 6.095 5.333 L 6.095 5.333 Z M 7.619 5.333 L 7.619 3.81 L 6.857 3.81 L 6.857 2.286 L 3.048 2.286 L 3.048 2.286 L 0 2.286 L 0 13.714 L 3.048 13.714 L 6.857 13.714 L 6.857 12.19 L 7.619 12.19 L 7.619 10.667 L 9.143 10.667 L 9.143 5.333 L 7.619 5.333 L 7.619 5.333 L 7.619 5.333 L 7.619 5.333 Z M 11.429 2.286 L 14.476 2.286 L 14.476 3.81 L 11.429 3.81 L 11.429 2.286 Z"/>
 </g>
</svg>
